assets/Pear/Flat/pear_flat.svg

<svg width="32" height="32" viewBox="0 0 32 32" fill="none" xmlns="http://www.w3.org/2000/svg">
<path d="M7.12 2.2911L3 3.8911C3.87 6.1311 6.38 7.2411 8.62 6.3711L12.74 4.7711C11.87 2.5411 9.36 1.4311 7.12 2.2911Z" fill="#00D26A"/>
<path d="M19.99 8.10112L19.89 7.85112C18.78 4.99112 15.56 3.57112 12.7 4.68112C9.84 5.78112 8.42 9.00112 9.53 11.8611L9.63 12.1111C10.26 13.7311 10.29 15.5211 9.73 17.1711C8.98 19.3511 9.03 21.7211 9.86 23.8711C11.77 28.8111 17.33 31.2611 22.27 29.3511C27.21 27.4411 29.66 21.8811 27.75 16.9411C26.92 14.7911 25.35 13.0111 23.33 11.9011C21.8 11.0711 20.62 9.72112 19.99 8.10112Z" fill="#C3EF3C"/>
</svg>

<svg xmlns="http://www.w3.org/2000/svg" width="32" height="32" fill="none"><path fill="#00D26A" d="M7.12 2.291 3 3.891a4.338 4.338 0 0 0 5.62 2.48l4.12-1.6a4.355 4.355 0 0 0-5.62-2.48Z"/><path fill="#C3EF3C" d="m19.99 8.101-.1-.25a5.557 5.557 0 0 0-7.19-3.17 5.543 5.543 0 0 0-3.17 7.18l.1.25c.63 1.62.66 3.41.1 5.06-.75 2.18-.7 4.55.13 6.7 1.91 4.94 7.47 7.39 12.41 5.48 4.94-1.91 7.39-7.47 5.48-12.41a9.774 9.774 0 0 0-4.42-5.04 7.349 7.349 0 0 1-3.34-3.8Z"/></svg>
